X:1
T:Sunshine, 76.86 D
T:Sunshine, 76.86 D
T:George Edgar Oliver, 1893
T:Public Domain Courtesy of the Cyber Hymnal™
C:George Edgar Oliver, 1893
Z:Public Domain
Z:Courtesy of the Cyber Hymnal™
%%score ( 1 2 ) ( 3 4 )
L:1/8
Q:1/4=105
M:6/8
K:C
V:1 treble 
V:2 treble 
V:3 bass 
V:4 bass 
V:1
 [EG] | [CE]2 [_B,E] FE[_B,F] | [CG]3 [Ec]2 [Ec] | [_Ec]2 [EB] AB[Ec] | [EG]3- [EG]2 [EG] | %5
 [FG]2 [Fd] dc[FB] | [Ec]2 [Ec] [EG]2 [EA] | ^FG[DA] [^DB]2 [DB] | E3- E2 G | [^CG]2 [Ge] ed[G^c] | %10
 [^Fd]3 [FA]2 [FA] | [FG]2 [Fd] dc[FB] | [Ec]3- [Ec]2 [Ec] | [_Ec]2 [Ec] cB[EB] | %14
 [Ec]2 [Ec] [EG]2 [CE] | [B,F]2 [B,A] [B,A]2 [B,G] | C4- C |] %17
V:2
 x | x3 =B,2 x | x6 | x3 _E2 x | x6 | x3 F2 x | x6 | E2 x4 | E3- E2 E/D/ | x3 G2 x | x6 | x3 F2 x | %12
 x6 | x3 _E2 x | x6 | x6 | C4- C |] %17
V:3
 [C,G,] | [C,G,]2 [^C,G,] [D,G,]2 [D,G,] | [E,G,]3 [C,G,]2 [C,G,] | %3
 [C,_G,]2 [C,G,] [C,G,]2 [C,G,] | [C,G,]3- [C,G,]2 [C,G,] | [D,B,]2 [D,B,] B,A,[G,,G,] | %6
 [C,G,]2 [C,C] [C,C]2 [C,A,] | [B,,A,]2 [B,,A,] [B,,A,]2 [B,,A,] | [E,G,]3- [E,G,]2 [E,B,] | %9
 [A,,A,]2 [A,,A,] [A,,A,]2 [A,,A,] | [D,A,]3 [D,A,]2 [D,C] | [G,B,]2 [G,B,] [G,,G,]2 [G,,G,] | %12
 [C,G,]3- [C,G,]2 [C,G,] | [^F,A,]2 [F,A,] [F,A,]B,[F,C] | [G,C]2 [G,C] [G,C]2 G, | %15
 [G,,G,]2 [G,,F,] [G,,F,]2 [G,,F,] | [C,E,]4- [C,E,] |] %17
V:4
 x | x6 | x6 | x6 | x6 | x3 G,,2 x | x6 | x6 | x6 | x6 | x6 | x6 | x6 | x6 | x5 G, | x6 | x5 |] %17

